website/public/Images/logos/slack_white.svg

<svg width="24" height="24" viewBox="0 0 24 24" fill="none" xmlns="http://www.w3.org/2000/svg">
<path d="M6.19382 14.6446C6.19382 15.8046 5.25082 16.7516 4.09082 16.7516C3.53277 16.75 2.99808 16.5274 2.60376 16.1325C2.20944 15.7376 1.98761 15.2026 1.98682 14.6446C1.98787 14.0867 2.20982 13.5519 2.60411 13.1573C2.9984 12.7626 3.53294 12.5401 4.09082 12.5386H6.19382V14.6446ZM7.25482 14.6446C7.25482 13.4846 8.19882 12.5386 9.35882 12.5386C9.91652 12.5404 10.4508 12.763 10.8449 13.1576C11.239 13.5523 11.4608 14.0869 11.4618 14.6446V19.9186C11.4608 20.4763 11.239 21.0109 10.8449 21.4055C10.4508 21.8001 9.91652 22.0227 9.35882 22.0246C8.80078 22.0235 8.26593 21.8012 7.87153 21.4064C7.47712 21.0117 7.25534 20.4766 7.25482 19.9186V14.6446ZM9.35882 6.18956C8.19882 6.18956 7.25482 5.24156 7.25482 4.08256C7.25482 2.92356 8.19882 1.97656 9.35882 1.97656C9.91652 1.97841 10.4508 2.20098 10.8449 2.59562C11.239 2.99026 11.4608 3.52486 11.4618 4.08256V6.18956H9.35882ZM9.35882 7.24956C9.91669 7.25141 10.4511 7.47412 10.8452 7.86897C11.2393 8.26383 11.461 8.79869 11.4618 9.35656C11.4608 9.91427 11.239 10.4489 10.8449 10.8435C10.4508 11.2381 9.91652 11.4607 9.35882 11.4626H4.09182C3.53394 11.461 2.9994 11.2385 2.60511 10.8439C2.21082 10.4492 1.98887 9.91444 1.98782 9.35656C1.98861 8.79851 2.21044 8.2635 2.60476 7.86862C2.99908 7.47374 3.53377 7.25115 4.09182 7.24956H9.35882ZM17.8058 9.35656C17.8058 8.19656 18.7488 7.24956 19.9088 7.24956C20.4669 7.25115 21.0016 7.47374 21.3959 7.86862C21.7902 8.2635 22.012 8.79851 22.0128 9.35656C22.0118 9.91444 21.7898 10.4492 21.3955 10.8439C21.0012 11.2385 20.4667 11.461 19.9088 11.4626H17.8058V9.35656ZM16.7448 9.35656C16.7448 10.5166 15.8008 11.4626 14.6408 11.4626C14.0831 11.4607 13.5488 11.2381 13.1548 10.8435C12.7607 10.4489 12.5389 9.91427 12.5378 9.35656V4.08256C12.5389 3.52486 12.7607 2.99026 13.1548 2.59562C13.5488 2.20098 14.0831 1.97841 14.6408 1.97656C15.8008 1.97656 16.7448 2.92256 16.7448 4.08256V9.35656ZM14.6408 17.8116C15.8008 17.8116 16.7448 18.7596 16.7448 19.9186C16.7448 21.0776 15.8008 22.0246 14.6408 22.0246C14.0831 22.0227 13.5488 21.8001 13.1548 21.4055C12.7607 21.0109 12.5389 20.4763 12.5378 19.9186V17.8116H14.6408ZM14.6408 16.7516C14.0829 16.7497 13.5485 16.527 13.1544 16.1322C12.7603 15.7373 12.5386 15.2024 12.5378 14.6446C12.5389 14.0869 12.7607 13.5523 13.1548 13.1576C13.5488 12.763 14.0831 12.5404 14.6408 12.5386H19.9088C20.4667 12.5401 21.0012 12.7626 21.3955 13.1573C21.7898 13.5519 22.0118 14.0867 22.0128 14.6446C22.012 15.2026 21.7902 15.7376 21.3959 16.1325C21.0016 16.5274 20.4669 16.75 19.9088 16.7516H14.6408Z" fill="white"/>
</svg>

<svg xmlns="http://www.w3.org/2000/svg" width="24" height="24" fill="none" xmlns:v="https://vecta.io/nano"><path d="M6.194 14.645a2.11 2.11 0 0 1-2.103 2.107 2.11 2.11 0 0 1-2.104-2.107 2.11 2.11 0 0 1 2.104-2.106h2.103v2.106zm1.061 0a2.11 2.11 0 0 1 2.104-2.106 2.11 2.11 0 0 1 2.103 2.106v5.274a2.11 2.11 0 0 1-2.103 2.106 2.11 2.11 0 0 1-2.104-2.106v-5.274zM9.359 6.19a2.11 2.11 0 0 1-2.104-2.107 2.11 2.11 0 0 1 2.104-2.106 2.11 2.11 0 0 1 2.103 2.106V6.19H9.359zm0 1.06a2.11 2.11 0 0 1 2.103 2.107 2.11 2.11 0 0 1-2.103 2.106H4.092a2.11 2.11 0 0 1-2.104-2.106A2.11 2.11 0 0 1 4.092 7.25h5.267zm8.447 2.107a2.11 2.11 0 0 1 3.59-1.488 2.11 2.11 0 0 1 0 2.975 2.11 2.11 0 0 1-1.487.619h-2.103V9.357zm-1.061 0a2.11 2.11 0 0 1-3.59 1.487 2.11 2.11 0 0 1-.617-1.487V4.083a2.11 2.11 0 0 1 2.103-2.106 2.11 2.11 0 0 1 2.104 2.106v5.274zm-2.104 8.455a2.11 2.11 0 0 1 2.104 2.107 2.11 2.11 0 0 1-3.59 1.487 2.11 2.11 0 0 1-.617-1.487v-2.107h2.103zm0-1.06a2.11 2.11 0 0 1-2.103-2.107 2.11 2.11 0 0 1 2.103-2.106h5.268a2.11 2.11 0 0 1 2.104 2.106 2.11 2.11 0 0 1-2.104 2.107h-5.268z" fill="#fff"/></svg>
